Data-Package-Tool.UI/Assets/Discord/ImageFile.svg

<svg fill="none" height="96" viewBox="0 0 72 96" width="72" xmlns="http://www.w3.org/2000/svg" xmlns:xlink="http://www.w3.org/1999/xlink"><script xmlns=""/><clipPath id="a"><path d="m0 0h72v96h-72z"/></clipPath><clipPath id="b"><path d="m0 0h72v96h-72z"/></clipPath><clipPath id="c"><path d="m12 36h48v48h-48z"/></clipPath><g clip-path="url(#a)"><g clip-path="url(#b)"><path d="m72 29.3v60.3c0 2.24 0 3.36-.44 4.22-.38.74-1 1.36-1.74 1.74-.86.44-1.98.44-4.22.44h-59.20002c-2.24 0-3.36 0-4.22-.44-.74-.38-1.359997-1-1.739996-1.74-.44000025-.86-.44000006-1.98-.43999967-4.22l.00001455-83.2c.00000039-2.24.00000059-3.36.44000112-4.22.38-.74 1-1.36 1.74-1.74.86-.43999947 1.98-.43999927 4.22-.43999888l36.3.00000635c1.96.00000034 2.94.00000051 3.86.22000053.5.12.98.28 1.44.5v16.879992c0 2.24 0 3.36.44 4.22.38.74 1 1.36 1.74 1.74.86.44 1.98.44 4.22.44h16.88c.22.46.38.94.5 1.44.22.92.22 1.9.22 3.86z" fill="#d3d6fd"/><path d="m68.26 20.26c1.38 1.38 2.06 2.06 2.56 2.88.18.28.32.56.46.86h-16.88c-2.24 0-3.36 0-4.22-.44-.74-.38-1.36-1-1.74-1.74-.44-.86-.44-1.98-.44-4.22v-16.880029c.3.14.58.28.86.459999.82.5 1.5 1.18 2.88 2.56z" fill="#939bf9"/></g><g clip-path="url(#c)" fill="#5865f2"><path d="m24 56c4.4183 0 8-3.5817 8-8s-3.5817-8-8-8-8 3.5817-8 8 3.5817 8 8 8z"/><path d="m44 55.998-10.352 15.528-5.648-7.528-12 16h40z"/></g></g></svg>

<svg xmlns="http://www.w3.org/2000/svg" xmlns:xlink="http://www.w3.org/1999/xlink" fill="none" viewBox="0 0 72 96"><defs><path id="a" d="M0 0h72v96H0z"/></defs><clipPath id="b"><use xlink:href="#a"/></clipPath><clipPath id="c"><use xlink:href="#a"/></clipPath><clipPath id="d"><path d="M12 36h48v48H12z"/></clipPath><g clip-path="url(#b)"><g clip-path="url(#c)"><path fill="#d3d6fd" d="M72 29.3v60.3c0 2.24 0 3.36-.44 4.22-.38.74-1 1.36-1.74 1.74-.86.44-1.98.44-4.22.44H6.4c-2.24 0-3.36 0-4.22-.44-.74-.38-1.36-1-1.74-1.74C0 92.96 0 91.84 0 89.6V6.4c0-2.24 0-3.36.44-4.22.38-.74 1-1.36 1.74-1.74C3.04 0 4.16 0 6.4 0h36.3c1.96 0 2.94 0 3.86.22.5.12.98.28 1.44.5V17.6c0 2.24 0 3.36.44 4.22.38.74 1 1.36 1.74 1.74.86.44 1.98.44 4.22.44h16.88c.22.46.38.94.5 1.44.22.92.22 1.9.22 3.86z"/><path fill="#939bf9" d="M68.26 20.26c1.38 1.38 2.06 2.06 2.56 2.88.18.28.32.56.46.86H54.4c-2.24 0-3.36 0-4.22-.44-.74-.38-1.36-1-1.74-1.74-.44-.86-.44-1.98-.44-4.22V.72c.3.14.58.28.86.46.82.5 1.5 1.18 2.88 2.56z"/></g><g fill="#5865f2" clip-path="url(#d)"><path d="M24 56a8 8 0 1 0 0-16 8 8 0 0 0 0 16zm20 0L33.65 71.53 28 64 16 80h40z"/></g></g></svg>
